assets/logos/usoda.svg

<?xml version="1.0" encoding="UTF-8" standalone="no"?>
<svg
   width="232.99452pt"
   height="113.73438pt"
   viewBox="0 0 232.99453 113.73437"
   version="1.1"
   id="svg5"
   xmlns="http://www.w3.org/2000/svg"
   xmlns:svg="http://www.w3.org/2000/svg">
  <defs
     id="defs5" />
  <g
     id="surface1"
     transform="translate(-18.685159,-21.94922)">
    <path
       style="fill:#002147;fill-opacity:1;fill-rule:evenodd;stroke:none"
       d="m 39.175781,110.85938 72.878909,0.97265 3.39844,-58.789061 -37.410161,-31.09375 c 0,0 -30.121094,28.90625 -38.867188,88.910161 z m 0,0"
       id="path2" />
    <path
       style="fill:#dc0030;fill-opacity:1;fill-rule:evenodd;stroke:none"
       d="m 142.89062,66.796875 v 28.480469 c 0,3.226562 -0.10156,5.499996 -0.29296,6.800786 -0.20313,1.3125 -0.77735,2.65234 -1.74219,4.02734 -0.96875,1.38281 -2.22656,2.42578 -3.8086,3.13281 -1.57421,0.71094 -3.4414,1.07031 -5.57031,1.07031 -2.375,0 -4.46875,-0.42187 -6.27343,-1.26562 -1.8125,-0.84375 -3.16797,-1.94141 -4.07032,-3.28906 -0.89843,-1.35547 -1.42968,-2.77735 -1.58593,-4.27735 -0.16797,-1.499997 -0.2461,-4.652341 -0.2461,-9.468747 V 66.796875 h 10.30859 v 31.949219 c 0,1.859376 0.0937,3.054686 0.28516,3.566406 0.18359,0.51953 0.55859,0.78125 1.13672,0.78125 0.65234,0 1.07031,-0.28516 1.26562,-0.85156 0.17969,-0.57422 0.27344,-1.92188 0.27344,-4.042971 V 66.796875 Z m 25.83594,12.894531 h -9.57422 v -3.15625 c 0,-1.472656 -0.125,-2.414062 -0.36718,-2.820312 -0.23829,-0.402344 -0.65235,-0.601563 -1.23047,-0.601563 -0.61719,0 -1.08594,0.269532 -1.40235,0.816407 -0.3164,0.539062 -0.47656,1.367187 -0.47656,2.472656 0,1.417969 0.17578,2.496094 0.53906,3.214844 0.33985,0.71875 1.31641,1.582031 2.91407,2.605468 4.58984,2.929688 7.47656,5.328125 8.67187,7.207032 1.19531,1.878906 1.78906,4.90625 1.78906,9.082031 0,3.039061 -0.33593,5.273441 -0.99609,6.710941 -0.66016,1.4375 -1.9375,2.65234 -3.82813,3.62109 -1.89843,0.97266 -4.09375,1.46484 -6.61718,1.46484 -2.75782,0 -5.11719,-0.5664 -7.0586,-1.6875 -1.96093,-1.125 -3.24218,-2.55468 -3.84375,-4.28515 -0.60156,-1.7461 -0.90234,-4.20703 -0.90234,-7.406252 v -2.785157 h 9.57812 v 5.183594 c 0,1.601565 0.12891,2.625005 0.39844,3.082035 0.27344,0.44922 0.75,0.68359 1.4375,0.68359 0.6836,0 1.19531,-0.28516 1.53125,-0.87109 0.33203,-0.57422 0.5,-1.4375 0.5,-2.578129 0,-2.507812 -0.3164,-4.152343 -0.94922,-4.921875 -0.65625,-0.773437 -2.26953,-2.058593 -4.82812,-3.863281 -2.56641,-1.835937 -4.26563,-3.15625 -5.10156,-3.980469 -0.82422,-0.828125 -1.52344,-1.96875 -2.06641,-3.425781 C 146.29687,82 146.02344,80.140625 146.02344,77.875 c 0,-3.261719 0.38672,-5.652344 1.16406,-7.160156 0.77344,-1.507813 2.02734,-2.6875 3.75391,-3.539063 1.73046,-0.84375 3.82031,-1.277343 6.27343,-1.277343 2.6836,0 4.96485,0.46875 6.84766,1.394531 1.89062,0.933594 3.13672,2.101562 3.75391,3.519531 0.60937,1.410156 0.91015,3.808594 0.91015,7.199219 z m 27.66406,12.054688 c 0,4.285156 -0.0937,7.3125 -0.27734,9.093746 -0.19141,1.78907 -0.77344,3.41407 -1.76172,4.88672 -0.98828,1.47266 -2.32812,2.60547 -4.00781,3.39844 -1.67969,0.78906 -3.64453,1.18359 -5.87891,1.18359 -2.125,0 -4.03125,-0.3789 -5.71875,-1.12109 -1.69922,-0.74609 -3.05078,-1.85937 -4.08203,-3.35156 -1.02734,-1.49219 -1.63672,-3.11719 -1.83984,-4.8711 -0.19141,-1.761715 -0.29297,-4.832027 -0.29297,-9.218746 v -7.285156 c 0,-4.285157 0.0977,-7.3125 0.28516,-9.101563 0.1875,-1.777344 0.77343,-3.40625 1.76953,-4.878906 0.98437,-1.472656 2.3125,-2.605469 4.0039,-3.394531 1.67969,-0.792969 3.63672,-1.1875 5.875,-1.1875 2.125,0 4.03125,0.378906 5.71875,1.125 1.69532,0.746093 3.05469,1.859375 4.08203,3.351562 1.03125,1.488281 1.64063,3.117188 1.83204,4.867188 0.19921,1.761718 0.29296,4.824218 0.29296,9.21875 z M 186.07812,77.75 c 0,-1.984375 -0.0977,-3.253906 -0.30859,-3.808594 -0.19922,-0.550781 -0.61719,-0.828125 -1.25391,-0.828125 -0.54296,0 -0.95312,0.226563 -1.23828,0.675782 -0.29297,0.4375 -0.43359,1.757812 -0.43359,3.960937 v 19.890625 c 0,2.480465 0.10156,4.007815 0.28516,4.582035 0.18359,0.58593 0.625,0.87109 1.3125,0.87109 0.70312,0 1.14843,-0.33203 1.34375,-0.99609 0.19531,-0.67578 0.29296,-2.25391 0.29296,-4.769535 z m 14.16016,-10.953125 h 7.71484 c 4.98438,0 8.34766,0.242188 10.10157,0.738281 1.75781,0.492188 3.09375,1.292969 4.00781,2.414063 0.91797,1.125 1.48828,2.382812 1.72266,3.757812 0.22656,1.375 0.34375,4.078125 0.34375,8.121094 V 96.75 c 0,3.82813 -0.16407,6.37891 -0.51172,7.67578 -0.33594,1.28516 -0.90625,2.29688 -1.7461,3.02735 -0.83593,0.72656 -1.86718,1.23046 -3.08593,1.52734 -1.23047,0.28516 -3.07032,0.42969 -5.53125,0.42969 h -13.01563 z m 10.31641,7.285156 v 28.035159 c 1.48047,0 2.40625,-0.31641 2.74218,-0.95313 0.34375,-0.64843 0.51172,-2.390622 0.51172,-5.230466 V 79.375 c 0,-1.929687 -0.0547,-3.160156 -0.16797,-3.710937 -0.11718,-0.539063 -0.375,-0.941407 -0.78515,-1.195313 -0.41016,-0.25 -1.17969,-0.386719 -2.30078,-0.386719 z m 35.22265,-7.285156 5.90235,42.613285 h -10.5586 l -0.51172,-7.66407 h -3.70312 l -0.60938,7.66407 h -10.67968 l 5.24218,-42.613285 z m -5.46093,27.402344 c -0.52735,-4.824219 -1.04688,-10.789063 -1.57032,-17.878906 -1.04687,8.148437 -1.69922,14.105468 -1.95703,17.878906 z m 0,0"
       id="path3" />
    <path
       style="fill:#ffffff;fill-opacity:1;fill-rule:evenodd;stroke:none"
       d="m 81.328125,49.183594 c 11.472656,0 20.781255,9.308594 20.781255,20.785156 0,10.671875 -8.050786,19.464844 -18.402349,20.644531 v 4.632813 c 0,1.515625 0.113282,2.519531 0.335938,3.003906 0.175781,0.371094 0.546875,0.6875 1.097656,0.953125 0.75,0.355469 1.542969,0.535156 2.382813,0.535156 h 1.285156 v 0.816409 H 73.609375 v -0.816409 h 1.257813 c 1.46875,0 2.527343,-0.363281 3.1875,-1.085937 0.417968,-0.46875 0.632812,-1.609375 0.632812,-3.40625 V 90.582031 C 68.460938,89.285156 60.542969,80.546875 60.542969,69.96875 c 0,-11.476562 9.308594,-20.785156 20.785156,-20.785156 z M 78.6875,84.449219 v -8.585938 c 0,-1.519531 -0.117187,-2.523437 -0.339844,-3.007812 C 78.167969,72.488281 77.8125,72.167969 77.277344,71.90625 76.511719,71.550781 75.710938,71.375 74.867188,71.375 H 73.609375 V 70.554688 H 88.808594 V 71.375 h -1.285156 c -1.441407,0 -2.5,0.363281 -3.160157,1.082031 -0.4375,0.476563 -0.65625,1.609375 -0.65625,3.40625 v 8.628907 c 6.996094,-1.136719 12.335938,-7.207032 12.335938,-14.523438 0,-8.128906 -6.585938,-14.71875 -14.714844,-14.71875 -8.125,0 -14.71875,6.589844 -14.71875,14.71875 0,7.226563 5.210938,13.234375 12.078125,14.480469 z m 0,0"
       id="path4" />
    <path
       style="fill:#9cb0d9;fill-opacity:1;fill-rule:evenodd;stroke:none"
       d="m 29.863281,103.43359 c 0,0 -12.898437,8.36719 -10.984375,16.91016 2.769532,11.94922 15.515625,14.12109 28.066407,14.64062 12.558593,0.52344 45.851562,-5.92578 51.953125,-6.97265 6.105472,-1.04688 35.910152,-4.53125 48.984372,1.57031 13.07813,6.10156 13.07813,6.10156 13.07813,6.10156 0,0 -21.09766,-20.74609 -37.3086,-20.57031 -16.21484,0.17188 -33.472652,2.61328 -56.832027,8.36719 -23.355469,5.7539 -40.441407,4.00781 -42.015625,-2.26563 -1.742188,-2.09375 -1.742188,-10.63671 5.058593,-17.78125 z m 0,0"
       id="path5" />
  </g>
</svg>

<?xml version="1.0" encoding="UTF-8"?>
<svg xmlns="http://www.w3.org/2000/svg" xmlns:xlink="http://www.w3.org/1999/xlink" width="268.8pt" height="157.8pt" viewBox="0 0 268.8 157.8" version="1.1">
<g id="surface1">
<path style=" stroke:none;fill-rule:evenodd;fill:rgb(0%,55.664063%,20.776367%);fill-opacity:1;" d="M 0.0234375 157.710938 L 268.8125 157.710938 L 268.8125 -0.0234375 L 0.0234375 -0.0234375 Z M 0.0234375 157.710938 "/>
<path style=" stroke:none;fill-rule:evenodd;fill:rgb(0%,13.719177%,28.637695%);fill-opacity:1;" d="M 39.175781 110.859375 L 112.054688 111.832031 L 115.453125 53.042969 L 78.042969 21.949219 C 78.042969 21.949219 47.921875 50.855469 39.175781 110.859375 Z M 39.175781 110.859375 "/>
<path style=" stroke:none;fill-rule:evenodd;fill:rgb(86.71875%,0%,19.993591%);fill-opacity:1;" d="M 142.890625 66.796875 L 142.890625 95.277344 C 142.890625 98.503906 142.789063 100.777344 142.597656 102.078125 C 142.394531 103.390625 141.820313 104.730469 140.855469 106.105469 C 139.886719 107.488281 138.628906 108.53125 137.046875 109.238281 C 135.472656 109.949219 133.605469 110.308594 131.476563 110.308594 C 129.101563 110.308594 127.007813 109.886719 125.203125 109.042969 C 123.390625 108.199219 122.035156 107.101563 121.132813 105.753906 C 120.234375 104.398438 119.703125 102.976563 119.546875 101.476563 C 119.378906 99.976563 119.300781 96.824219 119.300781 92.007813 L 119.300781 66.796875 L 129.609375 66.796875 L 129.609375 98.746094 C 129.609375 100.605469 129.703125 101.800781 129.894531 102.3125 C 130.078125 102.832031 130.453125 103.09375 131.03125 103.09375 C 131.683594 103.09375 132.101563 102.808594 132.296875 102.242188 C 132.476563 101.667969 132.570313 100.320313 132.570313 98.199219 L 132.570313 66.796875 Z M 168.726563 79.691406 L 159.152344 79.691406 L 159.152344 76.535156 C 159.152344 75.0625 159.027344 74.121094 158.785156 73.714844 C 158.546875 73.3125 158.132813 73.113281 157.554688 73.113281 C 156.9375 73.113281 156.46875 73.382813 156.152344 73.929688 C 155.835938 74.46875 155.675781 75.296875 155.675781 76.402344 C 155.675781 77.820313 155.851563 78.898438 156.214844 79.617188 C 156.554688 80.335938 157.53125 81.199219 159.128906 82.222656 C 163.71875 85.152344 166.605469 87.550781 167.800781 89.429688 C 168.996094 91.308594 169.589844 94.335938 169.589844 98.511719 C 169.589844 101.550781 169.253906 103.785156 168.59375 105.222656 C 167.933594 106.660156 166.65625 107.875 164.765625 108.84375 C 162.867188 109.816406 160.671875 110.308594 158.148438 110.308594 C 155.390625 110.308594 153.03125 109.742188 151.089844 108.621094 C 149.128906 107.496094 147.847656 106.066406 147.246094 104.335938 C 146.644531 102.589844 146.34375 100.128906 146.34375 96.929688 L 146.34375 94.144531 L 155.921875 94.144531 L 155.921875 99.328125 C 155.921875 100.929688 156.050781 101.953125 156.320313 102.410156 C 156.59375 102.859375 157.070313 103.09375 157.757813 103.09375 C 158.441406 103.09375 158.953125 102.808594 159.289063 102.222656 C 159.621094 101.648438 159.789063 100.785156 159.789063 99.644531 C 159.789063 97.136719 159.472656 95.492188 158.839844 94.722656 C 158.183594 93.949219 156.570313 92.664063 154.011719 90.859375 C 151.445313 89.023438 149.746094 87.703125 148.910156 86.878906 C 148.085938 86.050781 147.386719 84.910156 146.84375 83.453125 C 146.296875 82 146.023438 80.140625 146.023438 77.875 C 146.023438 74.613281 146.410156 72.222656 147.1875 70.714844 C 147.960938 69.207031 149.214844 68.027344 150.941406 67.175781 C 152.671875 66.332031 154.761719 65.898438 157.214844 65.898438 C 159.898438 65.898438 162.179688 66.367188 164.0625 67.292969 C 165.953125 68.226563 167.199219 69.394531 167.816406 70.8125 C 168.425781 72.222656 168.726563 74.621094 168.726563 78.011719 Z M 196.390625 91.746094 C 196.390625 96.03125 196.296875 99.058594 196.113281 100.839844 C 195.921875 102.628906 195.339844 104.253906 194.351563 105.726563 C 193.363281 107.199219 192.023438 108.332031 190.34375 109.125 C 188.664063 109.914063 186.699219 110.308594 184.464844 110.308594 C 182.339844 110.308594 180.433594 109.929688 178.746094 109.1875 C 177.046875 108.441406 175.695313 107.328125 174.664063 105.835938 C 173.636719 104.34375 173.027344 102.71875 172.824219 100.964844 C 172.632813 99.203125 172.53125 96.132813 172.53125 91.746094 L 172.53125 84.460938 C 172.53125 80.175781 172.628906 77.148438 172.816406 75.359375 C 173.003906 73.582031 173.589844 71.953125 174.585938 70.480469 C 175.570313 69.007813 176.898438 67.875 178.589844 67.085938 C 180.269531 66.292969 182.226563 65.898438 184.464844 65.898438 C 186.589844 65.898438 188.496094 66.277344 190.183594 67.023438 C 191.878906 67.769531 193.238281 68.882813 194.265625 70.375 C 195.296875 71.863281 195.90625 73.492188 196.097656 75.242188 C 196.296875 77.003906 196.390625 80.066406 196.390625 84.460938 Z M 186.078125 77.75 C 186.078125 75.765625 185.980469 74.496094 185.769531 73.941406 C 185.570313 73.390625 185.152344 73.113281 184.515625 73.113281 C 183.972656 73.113281 183.5625 73.339844 183.277344 73.789063 C 182.984375 74.226563 182.84375 75.546875 182.84375 77.75 L 182.84375 97.640625 C 182.84375 100.121094 182.945313 101.648438 183.128906 102.222656 C 183.3125 102.808594 183.753906 103.09375 184.441406 103.09375 C 185.144531 103.09375 185.589844 102.761719 185.785156 102.097656 C 185.980469 101.421875 186.078125 99.84375 186.078125 97.328125 Z M 200.238281 66.796875 L 207.953125 66.796875 C 212.9375 66.796875 216.300781 67.039063 218.054688 67.535156 C 219.8125 68.027344 221.148438 68.828125 222.0625 69.949219 C 222.980469 71.074219 223.550781 72.332031 223.785156 73.707031 C 224.011719 75.082031 224.128906 77.785156 224.128906 81.828125 L 224.128906 96.75 C 224.128906 100.578125 223.964844 103.128906 223.617188 104.425781 C 223.28125 105.710938 222.710938 106.722656 221.871094 107.453125 C 221.035156 108.179688 220.003906 108.683594 218.785156 108.980469 C 217.554688 109.265625 215.714844 109.410156 213.253906 109.410156 L 200.238281 109.410156 Z M 210.554688 74.082031 L 210.554688 102.117188 C 212.035156 102.117188 212.960938 101.800781 213.296875 101.164063 C 213.640625 100.515625 213.808594 98.773438 213.808594 95.933594 L 213.808594 79.375 C 213.808594 77.445313 213.753906 76.214844 213.640625 75.664063 C 213.523438 75.125 213.265625 74.722656 212.855469 74.46875 C 212.445313 74.21875 211.675781 74.082031 210.554688 74.082031 Z M 245.777344 66.796875 L 251.679688 109.410156 L 241.121094 109.410156 L 240.609375 101.746094 L 236.90625 101.746094 L 236.296875 109.410156 L 225.617188 109.410156 L 230.859375 66.796875 Z M 240.316406 94.199219 C 239.789063 89.375 239.269531 83.410156 238.746094 76.320313 C 237.699219 84.46875 237.046875 90.425781 236.789063 94.199219 Z M 240.316406 94.199219 "/>
<path style=" stroke:none;fill-rule:evenodd;fill:rgb(0%,55.664063%,20.776367%);fill-opacity:1;" d="M 81.328125 49.183594 C 92.800781 49.183594 102.109375 58.492188 102.109375 69.96875 C 102.109375 80.640625 94.058594 89.433594 83.707031 90.613281 L 83.707031 95.246094 C 83.707031 96.761719 83.820313 97.765625 84.042969 98.25 C 84.21875 98.621094 84.589844 98.9375 85.140625 99.203125 C 85.890625 99.558594 86.683594 99.738281 87.523438 99.738281 L 88.808594 99.738281 L 88.808594 100.554688 L 73.609375 100.554688 L 73.609375 99.738281 L 74.867188 99.738281 C 76.335938 99.738281 77.394531 99.375 78.054688 98.652344 C 78.472656 98.183594 78.6875 97.042969 78.6875 95.246094 L 78.6875 90.582031 C 68.460938 89.285156 60.542969 80.546875 60.542969 69.96875 C 60.542969 58.492188 69.851563 49.183594 81.328125 49.183594 Z M 78.6875 84.449219 L 78.6875 75.863281 C 78.6875 74.34375 78.570313 73.339844 78.347656 72.855469 C 78.167969 72.488281 77.8125 72.167969 77.277344 71.90625 C 76.511719 71.550781 75.710938 71.375 74.867188 71.375 L 73.609375 71.375 L 73.609375 70.554688 L 88.808594 70.554688 L 88.808594 71.375 L 87.523438 71.375 C 86.082031 71.375 85.023438 71.738281 84.363281 72.457031 C 83.925781 72.933594 83.707031 74.066406 83.707031 75.863281 L 83.707031 84.492188 C 90.703125 83.355469 96.042969 77.285156 96.042969 69.96875 C 96.042969 61.839844 89.457031 55.25 81.328125 55.25 C 73.203125 55.25 66.609375 61.839844 66.609375 69.96875 C 66.609375 77.195313 71.820313 83.203125 78.6875 84.449219 Z M 78.6875 84.449219 "/>
<path style=" stroke:none;fill-rule:evenodd;fill:rgb(61.521912%,69.726563%,85.15625%);fill-opacity:1;" d="M 29.863281 103.433594 C 29.863281 103.433594 16.964844 111.800781 18.878906 120.34375 C 21.648438 132.292969 34.394531 134.464844 46.945313 134.984375 C 59.503906 135.507813 92.796875 129.058594 98.898438 128.011719 C 105.003906 126.964844 134.808594 123.480469 147.882813 129.582031 C 160.960938 135.683594 160.960938 135.683594 160.960938 135.683594 C 160.960938 135.683594 139.863281 114.9375 123.652344 115.113281 C 107.4375 115.285156 90.179688 117.726563 66.820313 123.480469 C 43.464844 129.234375 26.378906 127.488281 24.804688 121.214844 C 23.0625 119.121094 23.0625 110.578125 29.863281 103.433594 Z M 29.863281 103.433594 "/>
</g>
</svg>
